!!!COM: Bach, Johann Sebastian
!!!CDT: 1685/3//-1750/7/28/
!!!OTL@@DE: Du Lebensfuerst, Herr Jesu Christ
!!!AGN: 4-Part Chorale
!!!SCT: BH 361
!!!SCT: BWV 248
**harm	**root	**kern	**kern	**kern	**kern
!	!	!bass	!tenor	!alto	!soprno
*	*Iorgan	*Iorgan	*Iorgan	*Iorgan	*Iorgan
*M4/4	*M4/4	*M4/4	*M4/4	*M4/4	*M4/4
*met(c)	*met(c)	*met(c)	*met(c)	*met(c)	*met(c)
*MM60	*MM60	*MM60	*MM60	*MM60	*MM60
*k[b-e-a-d-]	*k[b-e-a-d-]	*k[b-e-a-d-]	*k[b-e-a-d-]	*k[b-e-a-d-]	*k[b-e-a-d-]
*A-:	*A-:	*A-:	*A-:	*A-:	*A-:
*>[A,A,B]	*>[A,A,B]	*>[A,A,B]	*>[A,A,B]	*>[A,A,B]	*>[A,A,B]
*>A	*>A	*>A	*>A	*>A	*>A
I	4GG	8A-	4c	4e-	4a-
.	.	8G	.	.	.
=1	=1	=1	=1	=1	=1
vi	4EE	4F	8c	4f	4a-
.	.	.	4d-	.	.
V7	4DD	4E-	.	4g	4b-
.	.	.	8e-	.	.
I	8GG	4A-	8c	8e-	8cc
V7d/V	8AA	.	8B-	8f	8dd
Vb	4DD	8G	4B-	4g	4ee-
.	.	8A-	.	.	.
=2	=2	=2	=2	=2	=2
Vc	4DD	4B-	4B-	8f	4ee-
.	.	.	.	8g	.
V7/V	4AA	4BB-	4B-	4a-	4dd
V;	4DD;	4E-;	4B-;	4g;	4ee-;
V/vi	4BB	4E	8c	4g	4cc
.	.	.	8B-	.	.
=3	=3	=3	=3	=3	=3
IVb	4CC	8F	8A-	4f	4dd-
.	.	8G	8B-	.	.
I	8GG	8A-	8c	8e-	4cc
IV7	8CC	8D-	8d-	8f	.
V7d	4DD	8d-	4e-	4g	4b-
.	.	8c	.	.	.
I	4GG	8B-	4e-	4a-	4cc
.	.	8A-	.	.	.
=4	=4	=4	=4	=4	=4
V	2DD	4e-	4.e-	4a-	2b-
.	.	4E-	.	4g	.
.	.	.	8d-	.	.
I;	4GG;	4A-;	4c;	4e-;	4a-;
=:|!	=:|!	=:|!	=:|!	=:|!	=:|!
*>B	*>B	*>B	*>B	*>B	*>B
V	4DD	4E-	8e-	8g	4b-
.	.	.	8f	8a-	.
=5	=5	=5	=5	=5	=5
V	4DD	8e-	8g	4.b-	4b-
.	.	8d-	8f	.	.
viio/ii	4GG#	4c	4e-	.	4cc
.	.	.	.	8a	.
ii	4AA	4B-	4f	8b-	4dd-
.	.	.	.	8a	.
viioD7/vi	4DD#	4E	4g	4b-	4dd-
!!linebreak: 2
=6	=6	=6	=6	=6	=6
vi	4EE	4F	4c	4b-	8cc
.	.	.	.	.	8b-
V/ii	4EE	4F	8f	4a	4cc
.	.	.	8e-	.	.
ii;	4AA;	4BB-;	4d-;	4f;	4b-;
vi	8EE	8F	8A-	8f	4cc
V7c/vi	8BB	8G	8B-	8e	.
=7	=7	=7	=7	=7	=7
vib	4EE	4A-	8c	4f	4cc
.	.	.	8d-	.	.
V7b/ii	4EE	4A	8e-	4f	4cc
.	.	.	8f	.	.
ii	4AA	4B-	4d-	8f	8dd-
.	.	.	.	8g	8ee-
V7b/V/vi	4FF#	4B	4d	8a-	4ff
.	.	.	.	8g	.
=8	=8	=8	=8	=8	=8
V/vi	4BB	4c	4c	8g	4ff
.	.	.	.	8a-	.
V7/vi	4BB	4C	4c	4b-	4ee
vi;	4EE;	4F;	4c;	4a-;	4ff;
V	4DD	8e-	4e-	4b-	4gg
.	.	8d-	.	.	.
=9	=9	=9	=9	=9	=9
Ib	4GG	8c	4e-	8a-	4aa-
.	.	8B-	.	8b-	.
I	4GG	8A-	4a-	4cc	4cc
.	.	8G	.	.	.
IV7b	8CC	8F	8A-	8cc	4dd-
viio	8FF#	8G	8B-	8b-	.
I	8GG	8A-	4c	8b-	4cc
vi	8EE	8F	.	8a-	.
=10	=10	=10	=10	=10	=10
V7b/V	2AA	8D	8f	2a-	2b-
.	.	8C	8e-	.	.
.	.	8D	8f	.	.
.	.	8BB-	8d	.	.
V;	4DD;	4E-;	4e-;	4g;	4b-;
Ib	4GG	4C	4e-	8a-	4ee-
.	.	.	.	8g	.
=11	=11	=11	=11	=11	=11
IV	4CC	4D-	8e-	4f	4ff
.	.	.	8d-	.	.
V7	4DD	4E-	8d-	4g	4ee-
.	.	.	8c	.	.
IV7b	8CC	8F	8c	8a-	4dd-
vii	8FF#	8G	8B-	8b-	.
I	4GG	4A-	4A-	4e-	8cc
.	.	.	.	.	8dd-
=12	=12	=12	=12	=12	=12
ii7b	4AA	4D-	8A-	4f	2b-
.	.	.	16G	.	.
.	.	.	16F	.	.
V	4DD	4E-	4G	4e-	.
I;	4GG;	4AA-;	4c;	4e-;	4a-;
==	==	==	==	==	==
*-	*-	*-	*-	*-	*-
!!chor2scor: -l 2 -o %b.pmx
!!!YEC: Copyright 1994, David Huron
!!!YEC: Changes/Additions 2001 by Craig Stuart Sapp
!!!YEN: United States of America
!!!SMA: 371 Bach Chorales, edited by Ludwig Erk, C.F. Peters
!!!PDT: 1850, 1865
!!!ONB: Harmony and Root analysis done manually
